svgs/erste_hilfe.svg

<svg viewBox="0 0 192 192" xml:space="preserve" style="fill-rule:evenodd;clip-rule:evenodd;stroke-linejoin:round;stroke-miterlimit:2" xmlns="http://www.w3.org/2000/svg"><path d="M1339.37 279.368H1300c-6.62 0-12 5.377-12 12v33.264c0 6.623 5.38 12 12 12h39.37V376c0 6.623 5.38 12 12 12h33.26c6.63 0 12-5.377 12-12v-39.368H1436c6.62 0 12-5.377 12-12v-33.264c0-6.623-5.38-12-12-12h-39.37V240c0-6.623-5.37-12-12-12h-33.26c-6.62 0-12 5.377-12 12v39.368Zm-39.37 12h45.37c3.31 0 6-2.686 6-6V240h33.26v45.368c0 3.314 2.69 6 6 6H1436v33.264h-45.37c-3.31 0-6 2.686-6 6V376h-33.26v-45.368c0-3.314-2.69-6-6-6H1300v-33.264Z" style="fill-rule:evenodd;clip-rule:evenodd;stroke-linejoin:round;stroke-miterlimit:2" transform="translate(-1272 -212)"/></svg>

<?xml version="1.0" encoding="UTF-8" standalone="no"?>
<svg
   width="100%"
   height="100%"
   viewBox="0 0 192 192"
   version="1.1"
   xml:space="preserve"
   style="fill-rule:evenodd;clip-rule:evenodd;stroke-linejoin:round;stroke-miterlimit:2;"
   id="svg10"
   sodipodi:docname="erste_hilfe.svg"
   inkscape:version="1.2.1 (9c6d41e410, 2022-07-14)"
   xmlns:inkscape="http://www.inkscape.org/namespaces/inkscape"
   xmlns:sodipodi="http://sodipodi.sourceforge.net/DTD/sodipodi-0.dtd"
   xmlns="http://www.w3.org/2000/svg"
   xmlns:svg="http://www.w3.org/2000/svg"><defs
   id="defs14" /><sodipodi:namedview
   id="namedview12"
   pagecolor="#ffffff"
   bordercolor="#000000"
   borderopacity="0.25"
   inkscape:showpageshadow="2"
   inkscape:pageopacity="0.0"
   inkscape:pagecheckerboard="0"
   inkscape:deskcolor="#d1d1d1"
   showgrid="false"
   inkscape:zoom="5.3489583"
   inkscape:cx="96"
   inkscape:cy="95.906524"
   inkscape:window-width="1274"
   inkscape:window-height="1303"
   inkscape:window-x="1282"
   inkscape:window-y="36"
   inkscape:window-maximized="0"
   inkscape:current-layer="svg10" />
    <path
   d="M1339.37,279.368L1300,279.368C1293.38,279.368 1288,284.745 1288,291.368C1288,291.368 1288,324.632 1288,324.632C1288,331.255 1293.38,336.632 1300,336.632L1339.37,336.632C1339.37,336.632 1339.37,376 1339.37,376C1339.37,382.623 1344.75,388 1351.37,388L1384.63,388C1391.26,388 1396.63,382.623 1396.63,376C1396.63,376 1396.63,336.632 1396.63,336.632C1396.63,336.632 1436,336.632 1436,336.632C1442.62,336.632 1448,331.255 1448,324.632C1448,324.632 1448,291.368 1448,291.368C1448,284.745 1442.62,279.368 1436,279.368L1396.63,279.368C1396.63,279.368 1396.63,240 1396.63,240C1396.63,233.377 1391.26,228 1384.63,228L1351.37,228C1344.75,228 1339.37,233.377 1339.37,240L1339.37,279.368ZM1300,291.368C1300,291.368 1345.37,291.368 1345.37,291.368C1348.68,291.368 1351.37,288.682 1351.37,285.368L1351.37,240L1384.63,240L1384.63,285.368C1384.63,288.682 1387.32,291.368 1390.63,291.368L1436,291.368L1436,324.632C1436,324.632 1390.63,324.632 1390.63,324.632C1387.32,324.632 1384.63,327.318 1384.63,330.632L1384.63,376C1384.63,376 1351.37,376 1351.37,376L1351.37,330.632C1351.37,327.318 1348.68,324.632 1345.37,324.632L1300,324.632L1300,291.368Z"
   id="path4"
   inkscape:label="erste_hilfe_form"
   style="fill-rule:evenodd;clip-rule:evenodd;stroke-linejoin:round;stroke-miterlimit:2"
   transform="translate(-1272,-212)" />
</svg>
